assets/img/icon-code.svg

<svg width="218" height="118" viewBox="0 0 218 118" fill="none" xmlns="http://www.w3.org/2000/svg">
<path d="M0 0H218V118H0V0Z" fill="#F6F6F6"/>
<mask id="mask0_5151_8854" style="mask-type:alpha" maskUnits="userSpaceOnUse" x="59" y="9" width="99" height="99">
<rect x="59" y="9" width="99" height="99" fill="#D9D9D9"/>
</mask>
<g mask="url(#mask0_5151_8854)">
<path d="M78.902 58.6045L94.8863 74.5889C95.6426 75.3451 96.0207 76.3076 96.0207 77.4764C96.0207 78.6451 95.6426 79.6076 94.8863 80.3639C94.1301 81.1201 93.1676 81.4982 91.9988 81.4982C90.8301 81.4982 89.8676 81.1201 89.1113 80.3639L70.1363 61.3889C69.7238 60.9764 69.4316 60.5295 69.2598 60.0482C69.0879 59.567 69.002 59.0514 69.002 58.5014C69.002 57.9514 69.0879 57.4357 69.2598 56.9545C69.4316 56.4732 69.7238 56.0264 70.1363 55.6139L89.1113 36.6389C89.9363 35.8139 90.916 35.4014 92.0504 35.4014C93.1848 35.4014 94.1645 35.8139 94.9895 36.6389C95.8145 37.4639 96.227 38.4436 96.227 39.5779C96.227 40.7123 95.8145 41.692 94.9895 42.517L78.902 58.6045ZM138.096 58.3982L122.111 42.4139C121.355 41.6576 120.977 40.6951 120.977 39.5264C120.977 38.3576 121.355 37.3951 122.111 36.6389C122.868 35.8826 123.83 35.5045 124.999 35.5045C126.168 35.5045 127.13 35.8826 127.886 36.6389L146.861 55.6139C147.274 56.0264 147.566 56.4732 147.738 56.9545C147.91 57.4357 147.996 57.9514 147.996 58.5014C147.996 59.0514 147.91 59.567 147.738 60.0482C147.566 60.5295 147.274 60.9764 146.861 61.3889L127.886 80.3639C127.061 81.1889 126.099 81.5842 124.999 81.5498C123.899 81.5154 122.936 81.0857 122.111 80.2607C121.286 79.4357 120.874 78.4561 120.874 77.3217C120.874 76.1873 121.286 75.2076 122.111 74.3826L138.096 58.3982Z" fill="#154973"/>
</g>
</svg>

<svg xmlns="http://www.w3.org/2000/svg" width="218" height="118" fill="none" viewBox="0 0 218 118"><path fill="#f6f6f6" d="M0 0h218v118H0z"/><mask id="a" width="99" height="99" x="59" y="9" maskUnits="userSpaceOnUse" style="mask-type:alpha"><path fill="#d9d9d9" d="M59 9h99v99H59z"/></mask><g mask="url(#a)"><path fill="#154973" d="m78.902 58.605 15.984 15.984q1.135 1.135 1.135 2.887 0 1.755-1.135 2.888-1.134 1.134-2.887 1.134t-2.888-1.134L70.136 61.389q-.618-.62-.876-1.34a4.6 4.6 0 0 1-.258-1.548q0-.825.258-1.546.258-.723.876-1.341l18.975-18.975q1.238-1.238 2.94-1.238t2.939 1.238q1.237 1.238 1.237 2.939t-1.237 2.939zm59.194-.207-15.985-15.984q-1.134-1.134-1.134-2.888 0-1.752 1.134-2.887 1.135-1.135 2.888-1.135t2.887 1.135l18.975 18.975q.62.619.877 1.34.258.723.258 1.547 0 .825-.258 1.547t-.877 1.34l-18.975 18.976q-1.237 1.237-2.887 1.186t-2.888-1.29q-1.237-1.237-1.237-2.938t1.237-2.94z"/></g></svg>
